X:145
T:A Honsup (Hunt's up)
M:6/4
L:1/4
S:Henry Atkinson 1694/95 transcribed John Stokoe 1883
N:Clef and key signature missing; key assumed to be G major but G minor
N:possible.  1st two notes of bars 5, 12 missing, also 1st note of bar
N:9.  2nd note of bar 12 is dotted, as dot is visible
K:G major
G2dB>cd|G2dB>cd|c>dcB>cB|A>BAF>ED|G2dB>cd|G2dB>cd|cgcBgB|A3A2A|c>deedc|B
>cddcB|(AB)GAF2|GA3G2|
